!!!COM: Ernest Chausson
!!!CNT: Francais
!!!TXO: Francais
!!!OTL: Cantique a\ l'Epouse
!!!OPS: Op. 36
!!!ONM: No. 1
!!!LYR: Albert Jounet
!!!ENC: Jacob Pegg
!!!YOR: 20 Songs for Voice and Piano, International Music Company, New York City, January, 1952
!!!ODT: 1896/
!!NB: Vocal melody and text only encoded.
**kern	**silbe
*clef G2	*
*k[b-e-a-]	*
*M4/4	*
=1	=1
2r	.
4r	.
8r	.
{8g	{E-
=2	=2
4.a-	-pouse
8a-	au
4a-	front
8a-	lu-
8a-	-mi-
=3	=3
[2b-	-neux
4b-]	|
8r	.
8b-	Voi-
=4	=4
4ee-	-ci
8dd-	que
8cc-	le
8.b-	soir
16a-	des-
([4a-	-cend
=5	=5
4a-_	|
8a-])}	|}
8r	.
{8g-	{Et
8f-	quil
8.g-	jet-
16g-	-te
=6	=6
8g-	dans
8f-	tes
(4f-	yeux
4en)	|
8dn	Des
8c	ray-
=7	=7
4.c	-ons
8c	cou-
4c-	-leur
4c-	de
=8	=8
2B-}	sang.}
2r	.
=9	=9
1r	.
=10	=10
8r	.
{8g	{Le
8g	cre/-
8g	-pus-
4a-	-cu-
8a-	-le
8a-	fe/e-
=11	=11
8b-	-ri-
8b-	-que
8a-	t'en-
8g	-vi-
8f	-ron~
8f	~ne
8g	d'un
8a-	feu
=12	=12
2a-	ro-
4g}	-se}
4r	.
=13	=13
4r	.
{2cc#	{Viens
8cc#	me
8cc#	chan-
=14	=14
4dd	-ter
8b-	un
8an	can-
4.g	-ti-
8g	-que
=15	=15
2a-	Beau
12g	comme
12g	u-
12g	-ne
8.f	som-
16f	-bre
=16	=16
4.f	ro-
[8e-	-se
8e-]}	|}
8r	.
4r	.
=17	=17
2r	.
4r	.
{8.c-	{Ou
16c-	plu-
=18	=18
[2c-	-to^t
8c-]	|
8c-	ne
8c-	chan-
8c-	-te
=19	=19
1B-}	pas}
=20	=20
4r	.
{4ee-	{Viens
4dd-	te
4b-	cou-
=21	=21
4an	-cher
8f#	sur
8en	mon
[2en	coeur
=22	=22
2en]}	|}
4r	.
{8a-	{Lais-
8b--	-se~
=23	=23
8b--	~moi
8b--	bai-
4.bb-	-ser
8bb-	tes
4a-	bras
=24	=24
4.a-	Pa^-
8g-	-les
8f-	com-
8f-	-me
8gn	l'aube
8e-	en
=25	=25
2e-}	fleur}
4r	.
8r	.
{8b-	{La
=26	=26
4b-	nuit
8b-	de
8b-	tes
4.an	yeux
8g	m'at-
=27	=27
2.b-	-ti-
4e-	-re
=28	=28
4.cc	Nuit
16cc	fre/-
16cc	-mis-
[4dd-	-san-
8.dd-]	-te
16dd-	mys-
=29	=29
2.dd-	-ti-
4g}	-que}
=30	=30
{4.cc	{Dou-
8b-	-ce
8b-	com-
8a-	-me
8g	ton
8f	sou-
=31	=31
8g	-rire
8f	heu-
[4f	-reux
8f]	|
8d-	et
(12d-	me/-
12d-	-lan-
12d-)	-co-
=32	=32
2.c	-li-
[4c	-que
=33	=33
4c]}	|}
4r	.
2r	.
=34	=34
1r	.
=35	=35
2r	.
8r	.
{4f	{Et
8B-	sou-
=36	=36
[2B-	-dain
8B-]	|
8g	la
8f	pro-
8e-	-fon-
=37	=37
4e-	-deur
8d	du
8c	pas-
8d-	-se/
8d-	re-
8e-	-li-
8f-	-gi-
=38	=38
2fn}	-eux,}
4r	.
{8g	{Le
8g	mys-
=39	=39
8.a-	-te\re
16a-	et
8a-	la
8a-	gran-
4.b-	-deur
8b-	de
=40	=40
4cc	notre
4dd	a-
4cc	-mou
8b-	se/-
8g	-ri-
=41	=41
1a-}	-eux.}
=42	=42
{(2an	{S'ouvre
4en)	|
4d	au
=43	=43
4.c	fond
8c	de
4c-	nos
4c-	pen-
=44	=44
2.B-	-se/es
[4e-	Comme
=45	=45
8e-]	|
8e-	u-
8f	-ne
8g	val-
8a-	-le/e
8a-	im-
4a-	-men-
=46	=46
2g}	-se}
8r	.
{8f	{Ou\
8f	des
8f#	fo-
=47	=47
4g	-re^ts
8f	de/-
8e-	-lais-
2g	-se/es
=48	=48
4.g	Re^-
8g	-vent
4a-	dans
4a-	un
=49	=49
4b-	grand
4b-	si-
([2b-	-len-
=50	=50
2.b-]	|
4B-)	|
=51	=51
4B-}	-ce}
4r	.
2r	.
*-	*-
